wp-content/themes/sd-accesslasers/public/images/application/icons/application-1.svg

<?xml version="1.0" encoding="UTF-8"?>
<svg width="120px" height="120px" viewBox="0 0 120 120" version="1.1" xmlns="http://www.w3.org/2000/svg" xmlns:xlink="http://www.w3.org/1999/xlink">
    <!-- Generator: Sketch 55 (78076) - https://sketchapp.com -->
    <title>1</title>
    <desc>Created with Sketch.</desc>
    <g id="Home" stroke="none" stroke-width="1" fill="none" fill-rule="evenodd">
        <g id="AL_Home-Copy" transform="translate(-343.000000, -1735.000000)" fill="currentColor" fill-rule="nonzero">
            <g id="Features" transform="translate(195.000000, 1665.000000)">
                <g id="Icons">
                    <g id="1" transform="translate(9.000000, 0.000000)">
                        <g id="icon" transform="translate(139.000000, 70.000000)">
                            <g id="laser-(1)" transform="translate(10.000000, 10.000000)">
                                <polygon id="Path" points="35.7486979 84.7469075 37.5992837 81.9742837 42.5992837 85.3092448 40.7495117 88.0826823"></polygon>
                                <polygon id="Path" points="40.2799479 77.5911458 43.0533854 75.7413737 46.3867187 80.7421875 43.6132812 82.5911458"></polygon>
                                <polygon id="Path" points="57.4088542 85.2799479 62.4088542 81.9458008 64.2578125 84.7192383 59.2578125 88.0533854"></polygon>
                                <polygon id="Path" points="53.6254883 80.7690429 56.9612629 75.7690429 59.7347004 77.618815 56.3989258 82.619629"></polygon>
                                <path d="M0,0 L0,11.6666667 L30,11.6666667 L30,15 L40,15 L40,40 C40.0081379,40.135905 40.0244142,40.270996 40.0496419,40.4052733 L41.7163085,47.07194 C41.9026692,47.8133138 42.5691731,48.3333333 43.3333333,48.3333333 L45,48.3333333 L45,53.3333333 C45,54.2537435 45.7462565,55 46.6666667,55 L48.3333333,55 L48.3333333,90 L10,90 L10,100 L90,100 L90,90 L51.6666667,90 L51.6666667,55 L53.3333333,55 C54.2537435,55 55,54.2537435 55,53.3333333 L55,48.3333333 L56.6666667,48.3333333 C57.4308269,48.3333333 58.0973308,47.8133138 58.2836915,47.07194 L59.9503581,40.4052733 C59.9755858,40.270996 59.9918621,40.135905 60,40 L60,15 L70,15 L70,11.6666667 L100,11.6666667 L100,0 L0,0 Z M30,8.33333333 L3.33333333,8.33333333 L3.33333333,3.33333333 L30,3.33333333 L30,8.33333333 Z M86.6666667,93.3333333 L86.6666667,96.6666667 L13.3333333,96.6666667 L13.3333333,93.3333333 L86.6666667,93.3333333 Z M51.6666667,51.6666667 L48.3333333,51.6666667 L48.3333333,48.3333333 L51.6666667,48.3333333 L51.6666667,51.6666667 Z M55.3653971,45 L44.6346029,45 L43.8012696,41.6666667 L56.1987304,41.6666667 L55.3653971,45 Z M56.6666667,38.3333333 L43.3333333,38.3333333 L43.3333333,35 L53.3333333,35 L53.3333333,31.6666667 L43.3333333,31.6666667 L43.3333333,28.3333333 L48.3333333,28.3333333 L48.3333333,25 L43.3333333,25 L43.3333333,15 L56.6666667,15 L56.6666667,38.3333333 Z M66.6666667,11.6666667 L33.3333333,11.6666667 L33.3333333,3.33333333 L66.6666667,3.33333333 L66.6666667,11.6666667 Z M96.6666667,8.33333333 L70,8.33333333 L70,3.33333333 L96.6666667,3.33333333 L96.6666667,8.33333333 Z" id="Shape"></path>
                            </g>
                        </g>
                    </g>
                </g>
            </g>
        </g>
    </g>
</svg>

<svg width="120" height="120" viewBox="0 0 120 120" version="1.1" xmlns="http://www.w3.org/2000/svg"><g id="Home" stroke="none" stroke-width="1" fill="none" fill-rule="evenodd"><g id="AL_Home-Copy" transform="translate(-343 -1735)" fill="currentColor" fill-rule="nonzero"><g id="Features" transform="translate(195 1665)"><g id="Icons"><g id="1" transform="translate(9)"><g id="icon" transform="translate(139 70)"><g id="laser-(1)" transform="translate(10 10)"><path id="Path" d="M35.749 84.747l1.85-2.773 5 3.335-1.85 2.774zm4.531-7.156l2.773-1.85 3.334 5.001-2.774 1.85zm17.129 7.689l5-3.334 1.849 2.773-5 3.334zm-3.784-4.511l3.336-5 2.774 1.85-3.336 5z"/><path d="M0 0v11.667h30V15h10v25c.008.136.024.271.05.405l1.666 6.667a1.668 1.668 0 0 0 1.617 1.261H45v5c0 .92.746 1.667 1.667 1.667h1.666v35H10v10h80V90H51.667V55h1.666c.92 0 1.667-.746 1.667-1.667v-5h1.667c.764 0 1.43-.52 1.617-1.261l1.666-6.667A3.09 3.09 0 0 0 60 40V15h10v-3.333h30V0H0zm30 8.333H3.333v-5H30v5zm56.667 85v3.334H13.333v-3.334h73.334zm-35-41.666h-3.334v-3.334h3.334v3.334zM55.365 45h-10.73l-.834-3.333H56.2L55.365 45zm1.302-6.667H43.333V35h10v-3.333h-10v-3.334h5V25h-5V15h13.334v23.333zm10-26.666H33.333V3.333h33.334v8.334zm30-3.334H70v-5h26.667v5z" id="Shape"/></g></g></g></g></g></g></g></svg>
